packages/swarm-icons/src/icons/large/Close Circled.svg

<svg xmlns="http://www.w3.org/2000/svg" width="28" height="28" viewBox="0 0 28 28">
  <path fill="#212121" d="M14,23 C18.9705627,23 23,18.9705627 23,14 C23,9.02943725 18.9705627,5 14,5 C9.02943725,5 5,9.02943725 5,14 C5,18.9705627 9.02943725,23 14,23 Z M14,25 C7.92486775,25 3,20.0751322 3,14 C3,7.92486775 7.92486775,3 14,3 C20.0751322,3 25,7.92486775 25,14 C25,20.0751322 20.0751322,25 14,25 Z M14,12.5857864 L11.5251263,10.1109127 C11.134602,9.72038841 10.501437,9.72038841 10.1109127,10.1109127 C9.72038841,10.501437 9.72038841,11.134602 10.1109127,11.5251263 L12.5857864,14 L10.1109127,16.4748737 C9.72038841,16.865398 9.72038841,17.498563 10.1109127,17.8890873 C10.501437,18.2796116 11.134602,18.2796116 11.5251263,17.8890873 L14,15.4142136 L16.4748737,17.8890873 C16.865398,18.2796116 17.498563,18.2796116 17.8890873,17.8890873 C18.2796116,17.498563 18.2796116,16.865398 17.8890873,16.4748737 L15.4142136,14 L17.8890873,11.5251263 C18.2796116,11.134602 18.2796116,10.501437 17.8890873,10.1109127 C17.498563,9.72038841 16.865398,9.72038841 16.4748737,10.1109127 L14,12.5857864 Z"/>
</svg>

<svg xmlns="http://www.w3.org/2000/svg" width="28" height="28"><path fill="#212121" d="M14 23a9 9 0 100-18 9 9 0 000 18zm0 2C7.925 25 3 20.075 3 14S7.925 3 14 3s11 4.925 11 11-4.925 11-11 11zm0-12.414l-2.475-2.475a1 1 0 00-1.414 1.414L12.586 14l-2.475 2.475a1 1 0 001.414 1.414L14 15.414l2.475 2.475a1 1 0 001.414-1.414L15.414 14l2.475-2.475a1 1 0 00-1.414-1.414L14 12.586z"/></svg>
